packages/calcite-ui-icons/icons/3d-32.svg

<?xml version="1.0" encoding="UTF-8"?><svg id="icons" xmlns="http://www.w3.org/2000/svg" viewBox="0 0 32 32"><defs><style>.cls-1{fill:none;}</style></defs><path d="M17.5,25h-.5V6h.5c7.4043,0,11.48145,3.40723,11.48145,9.59375,0,6.06543-4.07715,9.40625-11.48145,9.40625ZM18,7.00586v16.98828c4.66992-.10156,9.98145-1.69336,9.98145-8.40039,0-6.85645-5.31152-8.4834-9.98145-8.58789ZM15,19.7793c0-1.96094-1.09766-3.50879-2.85645-4.26172,1.75879-.75293,2.80645-2.2998,2.80645-4.26074,0-2.94824-2.36602-5.25684-5.45-5.25684-3.12891,0-5.48926,2.14551-5.48926,4.99023h1c0-2.3125,1.8877-3.99023,4.48926-3.99023,2.52344,0,4.5,1.87012,4.5,4.25684,0,2.24902-1.79004,3.76074-4.45312,3.76074v1c2.66309,0,4.45312,1.51172,4.45312,3.76172,0,2.36719-1.97656,4.2207-4.5,4.2207-2.60156,0-4.48926-1.66309-4.48926-3.95508h-1c0,2.8252,2.36035,4.95508,5.48926,4.95508,3.08398,0,5.5-2.29297,5.5-5.2207Z"/><rect class="cls-1" width="32" height="32"/></svg>

<svg xmlns="http://www.w3.org/2000/svg" viewBox="0 0 32 32"><path d="M17.5 25H17V6h.5c7.404 0 11.481 3.407 11.481 9.594C28.981 21.659 24.904 25 17.5 25zM18 7.006v16.988c4.67-.101 9.981-1.693 9.981-8.4 0-6.857-5.311-8.484-9.981-8.588zm-3 12.773c0-1.96-1.098-3.508-2.856-4.261 1.758-.753 2.806-2.3 2.806-4.261C14.95 8.309 12.584 6 9.5 6c-3.129 0-5.49 2.146-5.49 4.99h1C5.01 8.678 6.899 7 9.5 7c2.523 0 4.5 1.87 4.5 4.257 0 2.249-1.79 3.76-4.453 3.76v1C12.21 16.018 14 17.53 14 19.78 14 22.146 12.023 24 9.5 24c-2.602 0-4.49-1.663-4.49-3.955h-1C4.01 22.87 6.372 25 9.5 25c3.084 0 5.5-2.293 5.5-5.22z"/><path fill="none" d="M0 0h32v32H0z"/></svg>
